flaticon/delivery/forklift.svg

<svg xmlns="http://www.w3.org/2000/svg" width="32" height="32" viewBox="0 0 24 24">
    <path d="M 23.601562 20 L 20 20 L 20 11.601562 C 20 11.359375 19.839844 11.199219 19.601562 11.199219 L 18 11.199219 C 17.761719 11.199219 17.601562 11.359375 17.601562 11.601562 L 17.601562 16.398438 L 16.773438 16.398438 C 16.554688 8.4375 15 0 11.199219 0 L 3.199219 0 C 2.960938 0 2.800781 0.160156 2.800781 0.398438 L 2.800781 2 C 2.800781 2.238281 2.960938 2.398438 3.199219 2.398438 L 3.605469 2.398438 L 2.402344 10.214844 C 2.164062 10.078125 1.890625 10 1.601562 10 C 0.71875 10 0 10.71875 0 11.601562 C 0 12.144531 0.273438 12.625 0.691406 12.914062 C 0.269531 13.289062 0 13.835938 0 14.441406 L 0 20.761719 C 0 21.679688 0.71875 22.398438 1.640625 22.398438 L 2.039062 22.398438 C 2.21875 23.324219 3.015625 24 4 24 C 4.984375 24 5.78125 23.324219 5.960938 22.398438 L 10.839844 22.398438 C 11.019531 23.324219 11.816406 24 12.800781 24 C 13.78125 24 14.582031 23.324219 14.761719 22.398438 L 15.160156 22.398438 C 16.078125 22.398438 16.800781 21.679688 16.800781 20.761719 L 16.800781 20.398438 L 17.601562 20.398438 L 17.601562 22 C 17.601562 22.238281 17.761719 22.398438 18 22.398438 L 23.601562 22.398438 C 23.839844 22.398438 24 22.238281 24 22 L 24 20.398438 C 24 20.160156 23.839844 20 23.601562 20 Z M 17.601562 17.199219 L 17.601562 18 L 16.800781 18 C 16.796875 17.734375 16.792969 17.46875 16.789062 17.199219 Z M 3.601562 0.800781 L 11.199219 0.800781 C 14 0.800781 15.960938 7.839844 16 18 L 15.199219 18 C 15.199219 17.347656 15.195312 16.71875 15.183594 16.117188 C 15.195312 16.082031 15.199219 16.042969 15.199219 16 L 15.160156 15.039062 C 15.160156 15.039062 15.160156 15.039062 15.15625 15.035156 C 15.035156 10.96875 14.636719 8.058594 13.921875 5.679688 C 13.160156 3.121094 12.160156 1.601562 11.199219 1.601562 L 3.601562 1.601562 Z M 0.800781 16.398438 L 14.382812 16.398438 C 14.394531 16.914062 14.398438 17.449219 14.398438 18 L 0.800781 18 Z M 2.398438 13.199219 L 4 13.199219 L 4 15.601562 L 0.800781 15.601562 L 0.800781 14.441406 C 0.800781 13.761719 1.359375 13.199219 2.039062 13.199219 Z M 11.199219 2.398438 C 11.480469 2.398438 12.359375 3.28125 13.160156 5.921875 C 13.769531 7.941406 14.128906 10.347656 14.292969 13.578125 L 12.609375 10.871094 C 12.992188 10.421875 12.929688 9.726562 12.519531 9.28125 C 12.078125 8.800781 11.320312 8.800781 10.839844 9.28125 L 9.441406 10.679688 C 8.960938 11.121094 8.960938 11.878906 9.441406 12.359375 C 9.679688 12.601562 9.960938 12.71875 10.28125 12.71875 C 10.476562 12.71875 10.671875 12.675781 10.84375 12.582031 L 12.742188 15.601562 L 9.640625 15.601562 L 9.640625 14.761719 C 9.640625 13.921875 8.960938 13.238281 8.121094 13.238281 L 7.800781 13.238281 C 7.480469 13.238281 7.199219 12.960938 7.199219 12.640625 L 7.199219 11.121094 C 7.199219 10.28125 6.519531 9.601562 5.679688 9.601562 L 5.132812 9.601562 L 5.996094 2.398438 Z M 10.558594 11.800781 C 10.398438 11.960938 10.160156 11.960938 10 11.800781 C 9.839844 11.640625 9.839844 11.398438 10 11.238281 L 11.441406 9.800781 C 11.519531 9.71875 11.601562 9.679688 11.71875 9.679688 C 11.800781 9.679688 11.921875 9.71875 11.960938 9.839844 C 12.121094 10 12.121094 10.238281 11.960938 10.398438 Z M 12.039062 11.441406 L 14.355469 15.152344 C 14.355469 15.199219 14.359375 15.25 14.359375 15.296875 L 14.359375 15.601562 L 13.679688 15.601562 L 11.441406 12.039062 Z M 4.800781 12.800781 L 4.800781 10.386719 C 4.820312 10.378906 4.835938 10.371094 4.855469 10.359375 L 5.640625 10.359375 C 6.039062 10.359375 6.359375 10.679688 6.359375 11.078125 L 6.359375 12.601562 C 6.359375 13.359375 7 14 7.761719 14 L 8.078125 14 C 8.480469 14 8.800781 14.320312 8.800781 14.71875 L 8.800781 15.601562 L 4.800781 15.601562 Z M 5.238281 2.398438 L 4.359375 9.601562 C 4.304688 9.601562 4.253906 9.617188 4.207031 9.640625 C 4.078125 9.707031 4 9.832031 4 10 L 4 12.398438 L 3 12.398438 C 3.0625 12.277344 3.109375 12.148438 3.144531 12.011719 C 3.171875 11.914062 3.1875 11.8125 3.195312 11.710938 C 3.195312 11.707031 3.195312 11.703125 3.195312 11.699219 C 3.199219 11.667969 3.199219 11.632812 3.199219 11.601562 C 3.199219 11.574219 3.199219 11.550781 3.199219 11.523438 C 3.1875 11.339844 3.148438 11.160156 3.082031 10.996094 L 4.441406 2.398438 Z M 1.601562 10.800781 C 1.929688 10.800781 2.210938 11 2.335938 11.285156 C 2.363281 11.371094 2.390625 11.460938 2.398438 11.546875 C 2.398438 11.566406 2.398438 11.582031 2.398438 11.601562 C 2.398438 11.625 2.398438 11.652344 2.394531 11.675781 C 2.378906 11.851562 2.300781 12.019531 2.160156 12.160156 C 2.121094 12.179688 2.089844 12.210938 2.070312 12.246094 C 1.9375 12.34375 1.777344 12.398438 1.601562 12.398438 C 1.160156 12.398438 0.800781 12.039062 0.800781 11.601562 C 0.800781 11.160156 1.160156 10.800781 1.601562 10.800781 Z M 4 23.199219 C 3.320312 23.199219 2.800781 22.679688 2.800781 22 C 2.800781 21.320312 3.320312 20.800781 4 20.800781 C 4.679688 20.800781 5.199219 21.320312 5.199219 22 C 5.199219 22.679688 4.679688 23.199219 4 23.199219 Z M 12.800781 23.199219 C 12.121094 23.199219 11.601562 22.679688 11.601562 22 C 11.601562 21.320312 12.121094 20.800781 12.800781 20.800781 C 13.480469 20.800781 14 21.320312 14 22 C 14 22.679688 13.480469 23.199219 12.800781 23.199219 Z M 16 20.761719 C 16 21.238281 15.601562 21.601562 15.160156 21.601562 L 14.761719 21.601562 C 14.589844 20.734375 13.878906 20.085938 12.980469 20.007812 C 12.972656 20.007812 12.964844 20.007812 12.957031 20.007812 C 12.9375 20.003906 12.914062 20.003906 12.894531 20.003906 C 12.863281 20 12.832031 20 12.800781 20 C 12.769531 20 12.738281 20 12.707031 20.003906 C 12.683594 20.003906 12.664062 20.003906 12.640625 20.007812 C 12.632812 20.007812 12.625 20.007812 12.617188 20.007812 C 11.71875 20.085938 11.007812 20.734375 10.839844 21.601562 L 5.960938 21.601562 C 5.792969 20.734375 5.078125 20.085938 4.183594 20.007812 C 4.175781 20.007812 4.167969 20.007812 4.15625 20.007812 C 4.136719 20.003906 4.117188 20.003906 4.09375 20.003906 C 4.0625 20 4.03125 20 4 20 C 3.96875 20 3.9375 20 3.90625 20.003906 C 3.882812 20.003906 3.863281 20.003906 3.84375 20.007812 C 3.832031 20.007812 3.824219 20.007812 3.816406 20.007812 C 2.921875 20.085938 2.207031 20.734375 2.039062 21.601562 L 1.640625 21.601562 C 1.160156 21.601562 0.800781 21.238281 0.800781 20.761719 L 0.800781 18.800781 L 16 18.800781 Z M 16.800781 19.601562 L 16.800781 18.800781 L 17.601562 18.800781 L 17.601562 19.601562 Z M 23.199219 21.601562 L 18.398438 21.601562 L 18.398438 12 L 19.199219 12 L 19.199219 20.398438 C 19.199219 20.640625 19.359375 20.800781 19.601562 20.800781 L 23.199219 20.800781 Z M 23.199219 21.601562"/>
</svg>

<svg xmlns="http://www.w3.org/2000/svg" width="32" height="32" viewBox="0 0 24 24">
    <path d="M23.602 20H20v-8.398c0-.243-.16-.403-.398-.403H18c-.238 0-.398.16-.398.403v4.796h-.829C16.555 8.438 15 0 11.2 0h-8c-.238 0-.398.16-.398.398V2c0 .238.16.398.398.398h.406l-1.203 7.817A1.604 1.604 0 0 0 0 11.602c0 .543.273 1.023.691 1.312A2.044 2.044 0 0 0 0 14.441v6.32a1.62 1.62 0 0 0 1.64 1.637h.4C2.218 23.324 3.015 24 4 24s1.781-.676 1.96-1.602h4.88c.18.926.976 1.602 1.96 1.602.981 0 1.782-.676 1.962-1.602h.398c.918 0 1.64-.718 1.64-1.636v-.364h.802V22c0 .238.16.398.398.398h5.602c.238 0 .398-.16.398-.398v-1.602c0-.238-.16-.398-.398-.398zm-6-2.8v.8H16.8l-.012-.8zM3.602.8h7.597C14 .8 15.961 7.84 16 18h-.8c0-.652-.005-1.281-.016-1.883a.37.37 0 0 0 .015-.117l-.039-.96-.004-.005c-.12-4.066-.52-6.976-1.234-9.355-.762-2.559-1.762-4.078-2.723-4.078H3.602zM.8 16.399h13.582c.012.516.015 1.051.015 1.602H.801zM2.398 13.2H4v2.403H.8v-1.16c0-.68.56-1.243 1.24-1.243zM11.2 2.4c.281 0 1.16.882 1.961 3.523.61 2.02.969 4.426 1.133 7.656l-1.684-2.707c.383-.45.32-1.144-.09-1.59-.44-.48-1.199-.48-1.68 0L9.442 10.68c-.48.441-.48 1.199 0 1.68.239.242.52.359.84.359.196 0 .39-.043.563-.137l1.898 3.02H9.641v-.84c0-.84-.68-1.524-1.52-1.524h-.32a.614.614 0 0 1-.602-.597v-1.52c0-.84-.68-1.52-1.52-1.52h-.546l.863-7.203zm-.64 9.402a.385.385 0 0 1-.559 0 .39.39 0 0 1 0-.563l1.441-1.437a.353.353 0 0 1 .278-.121c.082 0 .203.039.242.16.16.16.16.398 0 .558zm1.48-.36l2.316 3.711c0 .047.004.098.004.145v.305h-.68l-2.238-3.563zm-7.238 1.36v-2.414a.357.357 0 0 0 .054-.028h.786c.398 0 .718.32.718.72v1.523C6.36 13.359 7 14 7.762 14h.316c.402 0 .723.32.723.719v.883h-4zm.437-10.403L4.36 9.602a.34.34 0 0 0-.152.039A.383.383 0 0 0 4 10v2.398H3a1.833 1.833 0 0 0 .195-.687v-.012c.004-.031.004-.066.004-.097v-.079a1.699 1.699 0 0 0-.117-.527l1.36-8.598zm-3.636 8.403c.328 0 .609.199.734.484.027.086.055.176.062.262v.055c0 .023 0 .05-.003.074a.778.778 0 0 1-.235.484c-.039.02-.07.05-.09.086a.801.801 0 0 1-1.27-.645c0-.44.36-.8.802-.8zM4 23.199c-.68 0-1.2-.52-1.2-1.199 0-.68.52-1.2 1.2-1.2.68 0 1.2.52 1.2 1.2 0 .68-.52 1.2-1.2 1.2zm8.8 0c-.679 0-1.198-.52-1.198-1.199 0-.68.52-1.2 1.199-1.2.68 0 1.199.52 1.199 1.2 0 .68-.52 1.2-1.2 1.2zm3.2-2.437c0 .476-.398.84-.84.84h-.398a1.977 1.977 0 0 0-1.782-1.594h-.023c-.02-.004-.043-.004-.062-.004C12.863 20 12.832 20 12.8 20s-.063 0-.094.004c-.023 0-.043 0-.066.004h-.024a1.968 1.968 0 0 0-1.777 1.594H5.96a1.972 1.972 0 0 0-1.776-1.594h-.028c-.02-.004-.039-.004-.062-.004C4.062 20 4.03 20 4 20s-.063 0-.094.004c-.023 0-.043 0-.062.004h-.028a1.972 1.972 0 0 0-1.777 1.594h-.398a.822.822 0 0 1-.84-.84V18.8H16zm.8-1.16V18.8h.802v.8zm6.4 2h-4.802V12h.801v8.398c0 .243.16.403.403.403h3.597zm0 0"/>
</svg>
